X:707
T:Waltz fr J\"amtland
R:Waltz
O:Sweden
M:3/4
L: 1/8
G:A and C
A:J\"amtland
%%RR_Export:Yes
Z:Richard Robinson <richard:beulah.demon.co.uk> tradtunes 2002-6-19
%%RR_OriginalCollection: <URL:http://www.leeds.ac.uk/music/Info/RRTuneBk/>
%%ID:00/00/0a/60
K:D
|: f>ga2 a2|a2 ^ga ba|f>g a2a2|a2 f4| g2 e4|g>f ed cB |1 A>G FED2 :|2 A2 f2fe|d4 :|
|: FE | D2f2 fe|d3F FG|A2 B3A|E6 | g4 B2|B3d cB|A2f2 fe|d4 :|
